X:1
T:The Black Velvet Waltz
C:as played by Sidney Baglole, P.E.I.
C:Fiddle Music of P.E.I., Ken Perlman
R:Waltz
M:3/4
K:C
L: 1/8
G,2|"C" C2 CB, CE|"C" G2 E2 C2|"F" F2 FE FA| "F" c2 cd cA\
  |"C" C2 CB, CE|"C" G2 GA GE| "G7" D2 DC DE| "G" D2 DF ED|
|"C" C2 CB, CE|"C" G2 E2 C2|"F" F2 FE FA| "F" c2 (3(BcB) A2 \
  |"G"G2 G^F GB| "G" d2 A2 B2| "C" c2 cB cd| "C" (c2 c2) :|
|: ce| "C" g2 g^f ga| "C" g2 e2 d2| "F" c2 cB cd| "F" c2 cd ef \
  |  "C" g2 g^f ga| "C" g2 =f2 e2| "G7" g3 ^f gB| "G" d2 e2 =f2|
| "C" g2 g^f ga| "C" g2 e2 d2| "F" c2 cB cd| "F" c2 (3(BcB) A2 \
  |"G"G2 G^F GB| "G" d2 A2 B2| "C" c2 cB cd| "C" (c2 c2) :|
